build/img/icons/shield.svg

<svg width="40" height="40" viewBox="0 0 40 40" fill="none" xmlns="http://www.w3.org/2000/svg">
<path d="M34.9917 11.4999C34.964 11.2198 34.8657 10.9513 34.706 10.7196C34.5462 10.4878 34.3303 10.3004 34.0784 10.1749L20.7451 3.50822C20.5135 3.39236 20.2582 3.33203 19.9992 3.33203C19.7403 3.33203 19.485 3.39236 19.2534 3.50822L5.92007 10.1749C5.66886 10.3011 5.45359 10.4888 5.29422 10.7204C5.13485 10.952 5.03654 11.2201 5.0084 11.4999C4.99007 11.6782 3.40673 29.4449 19.3234 36.5232C19.5361 36.6192 19.7667 36.6688 20.0001 36.6688C20.2334 36.6688 20.4641 36.6192 20.6767 36.5232C36.5934 29.4449 35.0101 11.6799 34.9917 11.4999ZM20.0001 33.1616C8.7184 27.7082 8.18507 16.0699 8.27673 12.7249L20.0001 6.86322L31.7151 12.7216C31.7767 16.0366 31.1684 27.7516 20.0001 33.1616Z" fill="#5CC773"/>
<path d="M18.3346 20.9763L14.5129 17.1546L12.1562 19.5113L18.3346 25.6896L27.8462 16.178L25.4896 13.8213L18.3346 20.9763Z" fill="#5CC773"/>
</svg>

<svg width="40" height="40" fill="none" xmlns="http://www.w3.org/2000/svg">
    <path d="M34.992 11.5a1.663 1.663 0 0 0-.914-1.325L20.745 3.508a1.667 1.667 0 0 0-1.492 0L5.92 10.175a1.67 1.67 0 0 0-.912 1.325c-.018.178-1.601 17.945 14.315 25.023a1.645 1.645 0 0 0 1.354 0C36.593 29.445 35.01 11.68 34.992 11.5zM20 33.162C8.718 27.708 8.185 16.07 8.277 12.725L20 6.863l11.715 5.859c.062 3.315-.547 15.03-11.715 20.44z" fill="#5CC773"/>
    <path d="m18.335 20.976-3.822-3.821-2.357 2.356 6.179 6.179 9.511-9.512-2.356-2.357-7.155 7.155z" fill="#5CC773"/>
</svg>
